X:1861
T:Fairy Dance
O:england
M:4/4
L:1/8
Q:1/4=171
C:Trad
K:G
GA|: B2 BG B2 BG|B2 BG FAFD|B2 BG cBAG|1 FDEF G2 GA :|2 FDEF G2 Bc
|: d^cdB e2 ed| =cBcA d3 c|B2 BG cBAG|1 FDEF G2 Bc :|2 FDEF G4||


